X: 2
T: The Skylark
R: reel
M: 4/4
L: 1/8
K: Dmaj
agfd ~e2dB|A~F3 DFAd|B~G3 EAAG|F~A3 F~A3|agfd ~e2dB|A~F3 DFAd|BGGF ~G2ag|faeg fed2:||a2fd Adfd|~e3d c'~a3|a2fa bged|Beed efge|~f3a ~g3e|~f2ef dBAG|F~A3 faag|faeg fed2:||


Tune 632	Setting 13657

